tools/download-figma-icons/icons/solid/money-bag.svg

<svg width="24" height="24" viewBox="0 0 24 24" fill="none" xmlns="http://www.w3.org/2000/svg">
<path fill-rule="evenodd" clip-rule="evenodd" d="M8.22902 6.00085C7.94477 6.00085 7.68453 5.8396 7.55778 5.58536L5.32882 1.1177C5.19008 0.839456 5.23733 0.504212 5.44807 0.275467C5.65957 0.0467217 5.98881 -0.0282768 6.27831 0.0864709C6.29856 0.0947207 8.34226 0.900954 10.101 0.900954C10.8384 0.900954 11.5639 0.700329 12.3318 0.48799L12.3382 0.486213L12.3465 0.483908C13.3931 0.19288 14.473 -0.107392 15.7446 0.0377219C17.9548 0.288967 18.5316 1.02395 18.6763 1.3277C18.7866 1.55869 18.7716 1.82869 18.6373 2.04618L16.4091 5.64536C16.2719 5.8666 16.0311 6.00085 15.7709 6.00085H8.22902ZM12.7498 14.25C12.7498 13.8376 12.4123 13.5001 11.9998 13.5001H10.3423C10.3684 13.4653 10.3933 13.4294 10.4184 13.3933C10.4584 13.3359 10.4988 13.2778 10.5448 13.2226C11.4298 12.2401 12.7648 12.0901 13.7997 12.8626C14.1297 13.1101 14.6022 13.0501 14.8497 12.7126C15.0972 12.3826 15.0297 11.9101 14.6997 11.6626C13.0497 10.4251 10.8298 10.6576 9.42732 12.2251C9.08983 12.6001 8.83483 13.0426 8.63984 13.5001H7.49986C7.08737 13.5001 6.74987 13.8376 6.74987 14.25C6.74987 14.6625 7.08737 15 7.49986 15H8.28734C8.27234 15.2475 8.27234 15.5025 8.28734 15.75H7.49986C7.08737 15.75 6.74987 16.0875 6.74987 16.5C6.74987 16.9125 7.08737 17.25 7.49986 17.25H8.63984C8.83483 17.7075 9.08983 18.15 9.42732 18.525C10.2223 19.4099 11.2723 19.8749 12.3598 19.8749C12.7948 19.8749 13.2372 19.7999 13.6647 19.6499C14.0247 19.5149 14.3697 19.3274 14.6997 19.0799C15.0297 18.8325 15.0972 18.36 14.8497 18.03C14.6022 17.7 14.1297 17.6325 13.7997 17.88C13.5897 18.0375 13.3722 18.1575 13.1547 18.2325C12.2323 18.57 11.2348 18.2925 10.5448 17.5275C10.4988 17.4722 10.4584 17.4142 10.4184 17.3567C10.3933 17.3206 10.3684 17.2847 10.3423 17.25H11.9998C12.4123 17.25 12.7498 16.9125 12.7498 16.5C12.7498 16.0875 12.4123 15.75 11.9998 15.75H9.77981C9.74981 15.5025 9.74981 15.2475 9.77981 15H11.9998C12.4123 15 12.7498 14.6625 12.7498 14.25ZM17.1747 7.91271C18.5996 9.19518 21.0671 11.8876 21.6146 15.5325C21.9896 18.0675 21.5846 19.98 20.3846 21.3749C18.8621 23.1441 16.1172 23.9999 11.9998 23.9999C7.88235 23.9999 5.1374 23.1441 3.61494 21.3749C2.41496 19.98 2.00997 18.0675 2.38496 15.5325C2.93245 11.8876 5.3999 9.19518 6.82487 7.91271C7.11736 7.65096 7.50736 7.50021 7.91235 7.50021H16.0872C16.4922 7.50021 16.8822 7.65096 17.1747 7.91271Z" fill="black"/>
</svg>

<svg xmlns="http://www.w3.org/2000/svg" width="24" height="24" fill="none" viewBox="0 0 24 24"><path fill="currentColor" fill-rule="evenodd" d="M8.229 6a.75.75 0 0 1-.671-.415l-2.23-4.467a.75.75 0 0 1 .95-1.032c.02.009 2.064.815 3.823.815.737 0 1.463-.2 2.23-.413l.007-.002.009-.002c1.046-.291 2.126-.591 3.398-.446 2.21.251 2.787.986 2.931 1.29a.75.75 0 0 1-.039.718l-2.228 3.6a.75.75 0 0 1-.638.355zm4.52 8.25a.75.75 0 0 0-.75-.75h-1.657q.039-.052.076-.107.058-.087.127-.17c.885-.983 2.22-1.133 3.255-.36a.746.746 0 0 0 1.05-.15.75.75 0 0 0-.15-1.05c-1.65-1.238-3.87-1.005-5.273.562A4.6 4.6 0 0 0 8.64 13.5H7.5a.75.75 0 0 0-.75.75c0 .412.337.75.75.75h.787a6 6 0 0 0 0 .75H7.5a.75.75 0 0 0-.75.75c0 .413.337.75.75.75h1.14c.195.457.45.9.787 1.275.795.885 1.845 1.35 2.933 1.35a4 4 0 0 0 1.305-.225q.54-.201 1.035-.57a.75.75 0 0 0 .15-1.05.75.75 0 0 0-1.05-.15c-.21.158-.428.277-.645.353-.923.337-1.92.06-2.61-.706a3 3 0 0 1-.127-.17l-.076-.107H12c.412 0 .75-.337.75-.75a.75.75 0 0 0-.75-.75H9.78a3 3 0 0 1 0-.75H12c.412 0 .75-.338.75-.75m4.426-6.337c1.425 1.282 3.892 3.975 4.44 7.62.375 2.534-.03 4.447-1.23 5.842C18.862 23.145 16.117 24 12 24c-4.118 0-6.863-.856-8.385-2.625-1.2-1.395-1.605-3.308-1.23-5.842.547-3.645 3.015-6.338 4.44-7.62A1.64 1.64 0 0 1 7.912 7.5h8.175c.405 0 .795.151 1.088.413" clip-rule="evenodd"/></svg>
